build/img/logo.svg

<svg width="105" height="64" viewBox="0 0 105 64" fill="none" xmlns="http://www.w3.org/2000/svg">
<path d="M91.6708 1.28061L84.9309 16.9955L78.0115 1.28061H64.5664L78.6542 28.6457V46.034H90.0437V28.6457L104.114 1.28061H91.6708Z" fill="white"/>
<path d="M3.4047 43.793C4.75963 44.9742 6.22457 45.8485 7.79375 46.4333C9.36292 47.0182 10.9553 47.3077 12.565 47.3077C14.4815 47.3077 16.375 46.9255 18.2337 46.1554C20.0866 45.3795 21.7136 43.7582 23.1265 41.2742C24.5335 38.7901 25.2399 35.2233 25.2399 30.5563V1.28041H13.8388V31.8417C13.8388 33.3877 13.6477 34.5574 13.2656 35.3565C12.8892 36.1671 12.1481 36.5724 11.0363 36.5724C9.21237 36.5724 7.97325 35.4028 7.32473 33.0577L0 39.5023C0.920658 41.1989 2.05556 42.6233 3.4047 43.7987V43.793Z" fill="white"/>
<path d="M60.1995 3.06887C56.8759 1.02489 53.0138 0 48.6073 0C44.2009 0 40.3272 1.02489 37.0152 3.06887C33.6915 5.11286 31.1496 7.92695 29.3893 11.517C27.6233 15.107 26.7432 19.1486 26.7432 23.6419C26.7432 28.1352 27.6233 32.1652 29.3893 35.7668C31.1554 39.3568 33.6915 42.1825 37.0094 44.2265C40.3214 46.2821 44.1893 47.3069 48.6131 47.3069C51.9483 47.3069 54.9825 46.7221 57.7039 45.5583C60.4196 44.3944 62.7357 42.7442 64.6233 40.6133C66.5225 38.4941 67.9643 35.9753 68.966 33.0917C69.9678 30.2023 70.4715 27.0582 70.4715 23.6419C70.4715 19.1428 69.5914 15.107 67.8369 11.517C66.0709 7.92695 63.5347 5.11286 60.2111 3.06887H60.1995ZM56.9975 30.9319C56.0073 32.8832 54.7393 34.3077 53.1875 35.2167C51.6472 36.1258 50.026 36.5717 48.3584 36.5717C46.6908 36.5717 45.0637 36.1258 43.5235 35.2167C41.9717 34.3135 40.7036 32.8832 39.7134 30.9319C38.7233 28.9921 38.2311 26.5602 38.2311 23.6419C38.2311 20.7236 38.7233 18.3032 39.7076 16.375C40.6978 14.4353 41.9659 13.0166 43.5177 12.1018C45.0695 11.1985 46.6907 10.7353 48.3641 10.7353C50.0375 10.7353 51.6472 11.1927 53.1991 12.1018C54.7509 13.0166 56.0189 14.4353 57.0091 16.375C57.9876 18.3032 58.4856 20.7351 58.4856 23.6419C58.4856 26.5486 57.9876 28.9921 57.0033 30.9319H56.9975Z" fill="white"/>
<path d="M33.8724 55.467H29.5296V50.8753H25.957V63.6314H29.5296V58.5301H33.8724V63.6314H37.445V50.8753H33.8724V55.467Z" fill="white"/>
<path d="M63.6608 50.8752L61.4142 58.6574L59.1676 50.8752H55.5949L53.7305 63.6313H57.1641L58.1137 56.2313L60.2677 63.6313H62.5665L64.7147 56.2313L65.6643 63.6313H69.0921L67.2277 50.8752H63.6608Z" fill="white"/>
<path d="M70.5039 63.6313H78.1645V60.5682H74.0765V58.53H77.7823V55.7217H74.0765V53.9383H78.1645V50.8752H70.5039V63.6313Z" fill="white"/>
<path d="M49.6805 51.3829C48.6382 50.7981 47.4223 50.5085 46.0442 50.5085C44.6661 50.5085 43.4501 50.7981 42.4079 51.3829C41.3656 51.9677 40.5666 52.7668 40.0165 53.7917C39.4606 54.8165 39.1885 55.9688 39.1885 57.2485C39.1885 58.5281 39.4664 59.6804 40.0165 60.7053C40.5724 61.7302 41.3656 62.535 42.4079 63.1199C43.4443 63.7047 44.6603 64 46.0442 64C47.0922 64 48.0418 63.8321 48.893 63.502C49.7442 63.172 50.468 62.703 51.0644 62.095C51.6608 61.4928 52.1124 60.7748 52.4251 59.9526C52.7378 59.1303 52.8941 58.2328 52.8941 57.2601C52.8941 55.9804 52.6162 54.8281 52.0661 53.8032C51.5102 52.7783 50.717 51.9793 49.6747 51.3945L49.6805 51.3829ZM48.7483 59.3272C48.4356 59.8831 48.0418 60.2884 47.5555 60.549C47.0691 60.8095 46.5653 60.9369 46.0384 60.9369C45.5115 60.9369 45.0077 60.8095 44.5213 60.549C44.0407 60.2884 43.6412 59.8831 43.3285 59.3272C43.0159 58.7771 42.8653 58.0823 42.8653 57.2485C42.8653 56.4147 43.0217 55.7256 43.3285 55.1755C43.6412 54.6255 44.035 54.2201 44.5213 53.9596C45.0077 53.699 45.5115 53.5716 46.0384 53.5716C46.5653 53.5716 47.0691 53.7048 47.5555 53.9596C48.0418 54.2201 48.4414 54.6255 48.7483 55.1755C49.0551 55.7256 49.2115 56.4205 49.2115 57.2485C49.2115 58.0765 49.0551 58.7713 48.7483 59.3272Z" fill="white"/>
</svg>

<svg xmlns="http://www.w3.org/2000/svg" width="105" height="64" fill="none" viewBox="0 0 105 64"><path fill="#fff" d="m91.67 1.28-6.74 15.716L78.012 1.28H64.566l14.088 27.365v17.388h11.39V28.646l14.07-27.365zM3.405 43.793c1.355 1.181 2.82 2.056 4.389 2.64a13.6 13.6 0 0 0 4.771.875c1.917 0 3.81-.383 5.669-1.153 1.853-.776 3.48-2.397 4.892-4.88 1.407-2.485 2.114-6.052 2.114-10.719V1.28H13.839v30.562q0 2.317-.573 3.514-.564 1.216-2.23 1.216-2.738.001-3.711-3.514L0 39.502C.92 41.2 2.056 42.623 3.405 43.8z"/><path fill="#fff" d="M60.2 3.069Q55.216.002 48.607 0c-4.406 0-8.28 1.025-11.592 3.069q-4.985 3.064-7.626 8.448-2.648 5.385-2.646 12.125c0 4.493.88 8.523 2.646 12.125 1.766 3.59 4.302 6.415 7.62 8.46q4.968 3.081 11.604 3.08c3.335 0 6.37-.585 9.09-1.749 2.717-1.164 5.033-2.814 6.92-4.945 1.9-2.119 3.341-4.638 4.343-7.521 1.002-2.89 1.506-6.034 1.506-9.45 0-4.5-.88-8.535-2.635-12.125-1.766-3.59-4.302-6.404-7.626-8.448zm-3.203 27.863c-.99 1.951-2.258 3.376-3.81 4.285-1.54.909-3.161 1.355-4.829 1.355s-3.294-.446-4.834-1.355q-2.326-1.357-3.81-4.285-1.484-2.912-1.483-7.29 0-4.376 1.477-7.267c.99-1.94 2.258-3.358 3.81-4.273 1.551-.904 3.173-1.367 4.846-1.367q2.509.002 4.835 1.367c1.552.915 2.82 2.333 3.81 4.273.979 1.928 1.477 4.36 1.477 7.267s-.498 5.35-1.483 7.29zM33.872 55.467H29.53v-4.592h-3.573v12.756h3.573v-5.1h4.342v5.1h3.573V50.875h-3.573zm29.788-4.592-2.246 7.782-2.246-7.782h-3.573L53.73 63.631h3.433l.95-7.4 2.154 7.4h2.298l2.149-7.4.95 7.4h3.427l-1.864-12.756zm6.844 12.756h7.66v-3.063h-4.088V58.53h3.706v-2.808h-3.706v-1.784h4.089v-3.063h-7.661zM49.68 51.383c-1.042-.585-2.258-.875-3.636-.875s-2.594.29-3.636.875-1.841 1.384-2.392 2.409c-.555 1.024-.828 2.177-.828 3.456q.001 1.92.828 3.457a6 6 0 0 0 2.392 2.415c1.036.585 2.252.88 3.636.88q1.572-.002 2.849-.498a6.1 6.1 0 0 0 2.171-1.407 6.1 6.1 0 0 0 1.361-2.142q.47-1.234.47-2.693-.002-1.92-.829-3.457a6 6 0 0 0-2.391-2.408zm-.932 7.944c-.312.556-.706.961-1.192 1.222a3.16 3.16 0 0 1-3.035 0q-.722-.389-1.193-1.222c-.312-.55-.463-1.245-.463-2.078q.002-1.25.463-2.074c.313-.55.707-.955 1.193-1.215s.99-.388 1.517-.388 1.031.133 1.518.388q.73.39 1.192 1.215c.307.55.464 1.245.464 2.074q-.002 1.243-.464 2.078"/></svg>
